src/icons/favorite-fill.icon.svg

<?xml version="1.0" encoding="UTF-8"?>
<svg width="24px" height="24px" viewBox="0 0 24 24" version="1.1" xmlns="http://www.w3.org/2000/svg" xmlns:xlink="http://www.w3.org/1999/xlink">
    <!-- Generator: Sketch 49.2 (51160) - http://www.bohemiancoding.com/sketch -->
    <title>IconFavoriteFill</title>
    <desc>Created with Sketch.</desc>
    <defs></defs>
    <g id="Page-1" stroke="none" stroke-width="1" fill="none" fill-rule="evenodd">
        <g id="IconFavoriteFill">
            <path d="M16.4730679,3 C18.034356,3 19.3458183,3.52173391 20.4074941,4.56521739 C21.46917,5.60870087 22,6.88234542 22,8.38618926 C22,9.12276583 21.8438735,9.86700391 21.5316159,10.6189258 C21.2193583,11.3708477 20.8758801,12.0383603 20.501171,12.6214834 C20.1264618,13.2046065 19.4941496,13.9565171 18.6042155,14.8772379 C17.7142813,15.7979586 16.9648742,16.5421966 16.3559719,17.1099744 C15.7470696,17.6777522 14.7712792,18.5447512 13.4285714,19.7109974 L11.9765808,21 L10.5245902,19.7570332 C9.2131082,18.5600963 8.24512412,17.6777522 7.6206089,17.1099744 C6.99609368,16.5421966 6.23888033,15.7979586 5.34894614,14.8772379 C4.45901194,13.9565171 3.82669977,13.2046065 3.45199063,12.6214834 C3.0772815,12.0383603 2.7416096,11.3708477 2.44496487,10.6189258 C2.14832014,9.86700391 2,9.12276583 2,8.38618926 C2,6.88234542 2.53082998,5.60870087 3.59250585,4.56521739 C4.65418173,3.52173391 5.95003138,3 7.48009368,3 C9.29118782,3 10.7900019,3.69053018 11.9765808,5.07161125 C13.1631597,3.69053018 14.6619738,3 16.4730679,3 Z" id="FAVORITE" fill="currentColor"></path>
        </g>
    </g>
</svg>

<svg xmlns="http://www.w3.org/2000/svg" viewBox="0 0 24 24"><path d="M16.473 3c1.561 0 2.873.522 3.934 1.565C21.47 5.61 22 6.882 22 8.386c0 .737-.156 1.481-.468 2.233-.313.752-.656 1.42-1.03 2.002-.376.584-1.008 1.336-1.898 2.256-.89.921-1.64 1.665-2.248 2.233a123.94 123.94 0 01-2.927 2.601L11.977 21l-1.452-1.243c-1.312-1.197-2.28-2.08-2.904-2.647a50.97 50.97 0 01-2.272-2.233c-.89-.92-1.522-1.672-1.897-2.256-.375-.583-.71-1.25-1.007-2.002A6.051 6.051 0 012 8.386c0-1.504.53-2.777 1.593-3.82C4.654 3.521 5.95 3 7.48 3c1.811 0 3.31.69 4.497 2.072C13.163 3.69 14.662 3 16.473 3z" fill="currentColor" fill-rule="evenodd"/></svg>
